X: 17
T: Inisheer
C: Tommy Walsh
Z: lusoceltibero
S: https://thesession.org/tunes/211#setting50442
R: waltz
M: 3/4
L: 1/8
K: Gmaj
|:D2|"G"B3A B<d|"G(B)"B3A B<d|"C" E3B AB|"D" D3B A<G|
"G"B3A B<d|"G(B)"B3A B<d|"C" G3B "D"A/G/F|1 "G" G4:|2"G" G3A Bd||
|:"C"e3f e<d|"G(B)" B3A Bd|"C"ef ed B/c/d|"C"e4 Bd|
"Em"e3f e<d|"G(B)" B3A B<d|"D" D3B A/G/F|1"G"G3A Bd:|2"G" G4||

